X:1482
T:Fair and Forty
R:reel
N:"collected from J. O'Neill"
B:"O'Neill's Dance Music of Ireland, 1482"
T: dea.ta.muil's da.fi.ci.d.
Z:transcribed by John B. Walsh, 8/22/96
M:C|
L:1/8
K:G
D2|((3.G.G.G) BG d2 Bd|efge edBd|ceAc BdGB|ABcA GFED|
|((3.G.G.G) BG d2 Bd|efge edBd|ceAc BdGB|cAFA G2||
d2|gfga bgdg|edef gdBd|gfga bgdg|edcB A2 (Bd)|
gfga bgdg|edef gdBG|DGBd gdBd|cAFA G2||


